X:1
T:Title
L:1/8
M:6/8
K:Ab
V:1 bass nm="Grand Piano"
V:1
 z3 C2 B, | A,2 B, C2[K:treble] D | =E2 F G2 B | A2 G F3- | F3 F2 F | B2 B B2 A | G2 B A2 G | %7
 c3 c3- | c3 d2 c | B2 d c2 B | d2 c B2 A | B3 G3- | G3 c2 B | A2 c B2 A | c2 B A2 G | A3 F3- | %16
 F3 B2 A | G2 c A2 G | B2 A G2 F | c6 | c6- | c3 F2 G | A2 A A2 A | A3 E2 F | G2 G G2 G | G3 D2 E | %26
 F3- F3/2=E3/2- | E3/2F3/2- F3/2G3/2 | C6- | C3 F2 G | A2 A A2 A | A3 E2 F | G2 G G2 G | G3 D2 E | %34
 F3- F3/2=E3/2- | E3/2F3/2- F3/2G3/2 | C6- | C3 z3 |] %38

